src/Resource_Files/fluent/list-add.svg

<svg clip-rule="evenodd" fill-rule="evenodd" stroke-linejoin="round" stroke-miterlimit="2" viewBox="0 0 16 16" xmlns="http://www.w3.org/2000/svg"><path d="m9.5 16.5c0 .276.224.5.5.5s.5-.224.5-.5v-6h6c.276 0 .5-.224.5-.5s-.224-.5-.5-.5h-6v-6c0-.276-.224-.5-.5-.5s-.5.224-.5.5v6h-6c-.276 0-.5.224-.5.5s.224.5.5.5h6z" fill="#1abc9c" fill-rule="nonzero" transform="translate(-2 -2)"/></svg>

<?xml version="1.0" encoding="UTF-8" standalone="no"?>
<!DOCTYPE svg PUBLIC "-//W3C//DTD SVG 1.1//EN" "http://www.w3.org/Graphics/SVG/1.1/DTD/svg11.dtd">
<svg width="100%" height="100%" viewBox="0 0 16 16" version="1.1" xmlns="http://www.w3.org/2000/svg" xmlns:xlink="http://www.w3.org/1999/xlink" xml:space="preserve" xmlns:serif="http://www.serif.com/" style="fill-rule:evenodd;clip-rule:evenodd;stroke-linejoin:round;stroke-miterlimit:2;">
    <g id="add" transform="matrix(1,0,0,1,-2,-2)">
        <path id="🎨-Color" d="M9.5,16.5C9.5,16.776 9.724,17 10,17C10.276,17 10.5,16.776 10.5,16.5L10.5,10.5L16.5,10.5C16.776,10.5 17,10.276 17,10C17,9.724 16.776,9.5 16.5,9.5L10.5,9.5L10.5,3.5C10.5,3.224 10.276,3 10,3C9.724,3 9.5,3.224 9.5,3.5L9.5,9.5L3.5,9.5C3.224,9.5 3,9.724 3,10C3,10.276 3.224,10.5 3.5,10.5L9.5,10.5L9.5,16.5Z" style="fill:rgb(26,188,156);fill-rule:nonzero;"/>
    </g>
</svg>
